X:1
T:All'ombra
T:All'ombra
T:Gio.Girolamo Kapsperger
C:Gio.Girolamo Kapsperger
%%score [ 1 2 ] { ( 3 5 ) | 4 }
L:1/8
Q:1/4=120
M:3/2
K:C
V:1 treble-8 nm="Tenor 1" snm="T 1"
V:2 treble-8 nm="Tenor 2" snm="T 2"
V:3 treble nm="BC" snm="BC"
V:5 treble 
V:4 bass 
V:1
 z2 d2 d2 d2 d4 | e2 d2 ^c4 d4 | z12 | z12 | z2 B2 B2 B2 A4 | G2 A2 (B2 c2) A4 | z12 | %7
w: All'- om- br'all' om-|br'al- la fon- te,|||All' om- br'all' om-|br'al- la fon- * te,||
w: Hor vie- ni, vie-|ni ri- tro- sa,|||hor- vie- ni, vie-|ni ri- tro- * sa,||
w: Ah fe- r'ah- cru-|da li- co- ri,|||Ah fe- r'ah cru-|da li- co- * ri,||
 z2 E2 F2 G3 A G2 | ^F8 E4 | z2 G2 A2 B3 c B2 | A2 GB c2 d3 c B2 | A8 G4 :: z2 d2 B2 d2 B2 d2 | %13
w: cor- rio bel- la li-|co- ri,|cor- rio bel- la li-|co- ri, cor- rio bel- la li-|co ri.|Ve- di, ve- di co-|
w: sem- pli- cet- ta li-|co- ri,|sem- pli- cet- ta li-|co- ri, sem- pli- cet- ta li-|co- ri.|Ve- di,- ve- di scher-|
w: fer- ma, fer- ma'i lui|las- si,|fer- ma, fer- ma'i lui|las- si, fer- ma, fer- ma'i lui|las- si.|Ve- di, ve- di co-|
 c8 A4 | B8 B4 | z12 | z12 | z12 | z2 B2 c2 d3 e d2 | d4 ^c4 d4 | z2 A2 B2 c3 d c2 | B8 A4 :: %22
w: me la|fron- te,||||fa di per lei s'a-|do- * ri,|fa di per lei s'a-|do- ri.|
w: zar vez-|zo- sa,||||bel- la ma- dre d'A-|mo- * re,|bel- la ma- dre d'A-|mo- re.|
w: me d'ar-|do- ri,||||in fiam- ma- ti ne|las- * si,|in- fiam- ma- ti ne|las- si.|
 e2 c2 d2 e3 f e2 | d2 c2 d4 e4 | G2 A2 B2 B2 A2 G2 | A8 G4 :| %26
w: deh fer- m'al pas- so, deh|fer- m'al pas- so,|fret- to- lo- sa pa- sto-|rel- la.|
w: ||||
w: ||||
V:2
 z12 | z12 | z2 B2 B2 B2 A4 | E2 ^F2 G4 A4 | z2 G2 G2 G2 ^F4 | E2 ^F2 (G2 A2) F4 | %6
w: ||All' om- br'all' om-|br'al- la fon- te,|All' om- br'all' om-|br'al- la fon- * te,|
w: ||Hor vie- ni, vie-|ni ri- tro- sa,|hor vie- ni, vie-|ni ri- tro- * sa,|
w: ||Ah fe- r'ah cru-|da li- co- ri,|Ah fe- r'ah cru-|da li- co- * ri,|
 z2 D2 E2 F3 G F2 | E12 | D2 A2 B2 c3 d c2 | c4 G8 | z2 G2 A2 B3 A G2 | G4 ^F4 G4 :: z12 | z12 | %14
w: cor- rio bel- la li-|co-|ri, cor- rio bel- la li-|co- ri,|cor- rio bel- la li-|co- * ri.|||
w: sem- pli- cet- ta li-|co-|ri, sem- pli- cet- ta li-|co- ri,|sem- pli- cet- ta li-|co- * ri.|||
w: fer- ma, fer- ma'i lui|las-|si, fer- ma, fer- ma'i lui|las- si,|fer- ma, fer- ma'i lui|las- * si.|||
 z12 | z2 B2 G2 B2 G2 B2 | A8 ^F4 | G8 G4 | z12 | z12 | z2 ^F2 G2 A3 B A2 | A4 ^G4 A4 :: %22
w: |Ve- di, ve- di co-|me la|fron- te,|||fa di per lei s'a-|do- * ri.|
w: |Ve- di, ve- di scher-|zar vez-|zo- sa,|||bel- la ma- dre d'A-|mo- * re.|
w: |Ve- di, ve- di co-|me d'ar-|do- ri,|||in fiam- ma- ti ne|las- * si.|
 c2 A2 B2 c3 d c2 | B2 A2 B4 c4 | E2 ^F2 G2 E2 F2 G2 | G4 ^F4 G4 :| %26
w: deh fer- m'al pas- so, deh|fer- m'al pas- so,|fret- to- lo- sa pa- sto-|rel- * la.|
w: ||||
w: ||||
V:3
 [GBd]8 [^FA]4 | [EG]4 [^CA]4 [D^FA]4 | [GBd]8 [^FA]4 | [EG]4 [CG]4 [D^F]4 | [DGB]8 [^FA]4 | %5
 [EG]4 [CG]4 [^FA]4 | [FA]12 | [EGc]12 | [^FA]8 [EGc]4 | [GBd]12 | [^FA]2 [DB]2 [GBd]4 [Ec]4 | %11
 d8 d4 :: [GBd]12 | [Ec]8 [^FA]4 | [GBd]12 | [GBd]12 | [Ec]8 [^FA]4 | [GBd]12 | [GBd]12 | %19
 [EAd]4 [E^c]4 [^FAd]4 | [^FAd]8 [^GB]4 | e8 ^c4 :: x12 | [FA]4 [DB]4 [EGc]4 | [Gc]8 [^FA]2 [DB]2 | %25
 d8 B4 :| %26
V:4
 z2 G,2 G,2 G,2 D,4 | C,4 E,4 D,4 | z2 G,2 G,2 G,2 D,4 | C,4 E,4 D,4 | z2 G,2 G,2 G,2 D,4 | %5
 C,4 E,4 D,4 | D,8 D,4 | C,8 C,4 | D,6 C,2 C,4 | G,,8 G,,4 | D,2 G,,2 G,,4 C,4 | %11
 [D,A,]8 [G,,G,]4 :: G,,12 | A,,8 D,4 | G,,12 | G,,12 | A,,8 D,4 | G,,12 | G,,12 | A,,8 D,4 | %20
 D,8 E,4 | [E,B,]8 A,,4 :: C,4 C,4 C,4 | F,4 G,4 C,4 | C,4 C,4 D,2 G,2 | [D,A,]8 G,,4 :| %26
V:5
 x12 | x12 | x12 | x12 | x12 | x12 | x12 | x12 | x12 | x12 | x12 | G4 ^F4 [GB]4 :: x12 | x12 | %14
 x12 | x12 | x12 | x12 | x12 | x12 | x12 | A4 ^G4 [EA]4 :: [EGc]12 | x12 | x12 | G4 ^F4 [DG]4 :| %26

